X:247
T:Scottiche  Malochet
R:Scottiche
C:Trad.
O:France
M:C
L:1/8
Q:1/4=180
K:G
BcBA GDGB|dcBcA4|DEFG A2AB|1c2BAB2G2:|2 c2BAG4|
|:B2d2E2FG|AGFED4|DEFGA2AB|1 c2BAB2G2:|2 c2BAG4||
